assets/haier-logo.svg

<svg width="83" height="25" viewBox="0 0 83 25" fill="none" xmlns="http://www.w3.org/2000/svg">
<path d="M50.29 2.67457C50.29 0.904194 48.7605 -0.0626771 47.5932 0.00315492C46.2574 -0.0626771 44.8461 1.05173 44.8536 2.66603C44.8536 4.16573 46.0121 5.33744 47.5517 5.34598C49.1492 5.36305 50.2989 4.13281 50.29 2.67457Z" fill="white"/>
<path d="M20.9847 24.1227V13.1151C20.9847 9.41954 20.9847 5.73126 20.9683 2.03567C20.9683 1.76866 20.9683 1.63698 20.9004 1.57236C20.835 1.5114 20.7067 1.5114 20.4526 1.5114H16.1659C15.9 1.5114 15.7649 1.5114 15.6961 1.57653C15.625 1.64393 15.625 1.78105 15.625 2.06006V10.4608C15.625 10.7034 15.625 10.8241 15.5621 10.8839C15.5005 10.9448 15.3785 10.9448 15.1344 10.9448H5.8339C5.58862 10.9448 5.46662 10.9448 5.40498 10.8839C5.34335 10.8254 5.34335 10.7059 5.34335 10.4693V2.48436L5.34347 2.40605C5.34369 2.36083 5.34427 2.3153 5.34586 2.26977C5.34878 2.12549 5.34795 1.98117 5.34335 1.83693C5.33453 1.55894 5.30184 1.51749 5.02259 1.51749H0.397482C0.0427656 1.51749 0.00754986 1.55894 0 1.91131V24.1873C0 24.269 0 24.358 0.00880394 24.4409C0.0163538 24.5628 0.0842772 24.6457 0.220124 24.6457C0.320755 24.6543 0.413836 24.6543 0.515721 24.6543H4.80247C5.07668 24.6543 5.21504 24.6543 5.28296 24.5872C5.35215 24.5201 5.35215 24.3872 5.35215 24.1214V15.7865C5.35215 15.2623 5.36096 15.2623 5.87666 15.2623H15.0753C15.3583 15.2623 15.5005 15.2623 15.5709 15.3305C15.6414 15.3988 15.6414 15.5366 15.6414 15.8109V24.1787C15.6414 24.6372 15.659 24.6543 16.1231 24.6543H20.4438C20.713 24.6543 20.8488 24.6543 20.9168 24.5884C20.9847 24.5226 20.9847 24.3897 20.9847 24.1227Z" fill="white"/>
<path fill-rule="evenodd" clip-rule="evenodd" d="M42.0725 24.1054V15.9022C42.0725 14.5659 42.0725 13.2308 42.0889 11.8945V7.5344C42.0889 7.15643 42.0549 7.12472 41.6738 7.12472H37.7858C37.4386 7.13326 37.4135 7.15765 37.4046 7.5027C37.3964 7.76612 37.3923 7.89719 37.3302 7.93208C37.2686 7.96665 37.15 7.90691 36.9141 7.78801C35.0374 6.84551 33.0676 6.54314 30.9959 6.91136C28.8324 7.29664 27.0224 8.32082 25.5846 9.96805C24.1733 11.5909 23.4538 13.4917 23.362 15.623C23.3117 16.7703 23.5054 17.8933 23.9104 18.976C24.8236 21.4096 26.4815 23.1629 28.8739 24.2286C30.0716 24.7531 31.3736 25.0161 32.6877 24.9992C34.1223 24.9963 35.5359 24.665 36.8135 24.0323C37.0307 23.9234 37.1408 23.8682 37.1985 23.9003C37.2577 23.9333 37.2618 24.0583 37.2701 24.3115C37.2789 24.6224 37.304 24.6468 37.6084 24.6553H41.5317C41.7971 24.6553 41.9329 24.6553 42.0021 24.5895C42.0725 24.5224 42.0725 24.3846 42.0725 24.1054ZM32.1456 10.6984C32.3833 10.6655 32.6198 10.6399 32.8651 10.6496C34.3443 10.6655 35.6298 11.1739 36.6701 12.1896C37.5742 13.0623 38.1181 14.2253 38.1996 15.4596C38.3179 17.0166 37.8273 18.3615 36.7531 19.4759C35.9048 20.3668 34.7515 20.9287 33.5078 21.0573C32.2475 21.1963 31.0638 20.967 30.0072 20.2867C28.2563 19.165 27.4035 17.5494 27.5293 15.4925C27.6815 13.026 29.6425 11.0252 32.1456 10.6984Z" fill="white"/>
<path fill-rule="evenodd" clip-rule="evenodd" d="M57.4434 16.8935C56.9529 16.8935 56.9453 16.902 57.0636 17.369C57.5868 19.4174 59.3717 21 61.4761 21.2219C63.3704 21.417 64.9176 20.7378 66.11 19.2625C66.2283 19.115 66.3465 18.9674 66.4308 18.8114C66.549 18.5822 66.7188 18.5492 66.9465 18.5907C67.2545 18.6492 67.565 18.7004 67.8755 18.7516L68.3754 18.837C69.0018 18.9431 69.627 19.0491 70.2622 19.1637L70.2798 19.1674L70.3287 19.1752C70.3607 19.1806 70.3929 19.187 70.4219 19.1967C70.6924 19.2625 70.7175 19.2942 70.5993 19.5503C70.2577 20.3021 69.8112 21.0049 69.2722 21.6389C67.8509 23.2946 66.0672 24.3761 63.9113 24.7943C60.9528 25.3601 58.2472 24.7699 55.8875 22.885C53.8837 21.2877 52.7504 19.1967 52.5064 16.6643C52.3286 14.9789 52.6667 13.2801 53.4787 11.7799C54.856 9.21455 57.0044 7.58317 59.8698 6.96867C62.9641 6.3127 65.7628 7.01012 68.1892 9.02556C69.9993 10.5338 71.0219 12.4846 71.3439 14.7878C71.4282 15.3853 71.4697 16.001 71.3691 16.607C71.3263 16.8447 71.31 16.8776 71.0647 16.8935C70.9994 16.8979 70.9339 16.8987 70.8684 16.8959L70.7678 16.8935H57.4434ZM66.5674 13.8925C66.6088 13.8913 66.6504 13.8892 66.6937 13.8855C66.7867 13.8782 66.8371 13.8283 66.8031 13.7307C66.497 13.0094 66.0225 12.3667 65.4169 11.853C64.3264 10.9105 63.0497 10.4606 61.6207 10.6082C59.6925 10.8045 58.2975 11.8128 57.4271 13.5259C57.2485 13.8782 57.2485 13.8941 57.6636 13.8941H66.3968C66.4555 13.8941 66.5112 13.8941 66.5674 13.8925Z" fill="white"/>
<path d="M73.4584 19.1235V17.6482L73.4596 17.647L73.4601 17.2814C73.4614 16.4196 73.4626 15.5584 73.4571 14.6964C73.432 10.6972 76.2231 6.87844 80.3489 5.72257C80.6005 5.6437 80.8573 5.58098 81.1174 5.53481C81.3375 5.50189 81.3715 5.51774 81.4143 5.73965C81.4759 6.04569 81.53 6.35171 81.5841 6.65775C81.7663 7.65382 81.9432 8.65079 82.1149 9.64861C82.174 9.99244 82.1665 10.0095 81.8193 10.0753C79.9514 10.4606 78.564 11.8445 78.2093 13.6978C78.1413 14.066 78.1162 14.4513 78.1162 14.8281V24.1067C78.1162 24.381 78.1162 24.5163 78.047 24.5822C77.9791 24.6468 77.8458 24.6468 77.5841 24.6468H73.7275C73.5162 24.6309 73.4835 24.598 73.4735 24.3932C73.4684 24.3273 73.4709 24.2615 73.4735 24.1957V24.1591C73.4597 22.4806 73.4547 20.8021 73.4584 19.1235Z" fill="white"/>
<path d="M50.0033 24.1469V15.8778C50.0033 13.1564 50.0033 10.4277 49.9945 7.69779L49.997 7.58439C49.9982 7.51123 50.0007 7.44052 49.9945 7.3698C49.9781 7.15643 49.9441 7.12472 49.7404 7.10766H45.6826C45.3995 7.10766 45.2549 7.10766 45.1832 7.17838C45.1077 7.2491 45.1077 7.3954 45.1077 7.69047V24.1054C45.1077 24.2054 45.1077 24.303 45.1165 24.4005C45.1329 24.6053 45.1756 24.6383 45.3782 24.6541H49.4951C49.7467 24.6541 49.8737 24.6541 49.9379 24.5931C50.0033 24.531 50.0033 24.4028 50.0033 24.1469Z" fill="white"/>
</svg>

<svg xmlns="http://www.w3.org/2000/svg" width="83" height="25" fill="none" viewBox="0 0 83 25"><path fill="#fff" d="M50.29 2.675c0-1.77-1.53-2.738-2.697-2.672-1.336-.066-2.747 1.049-2.74 2.663 0 1.5 1.16 2.671 2.699 2.68 1.597.017 2.747-1.213 2.738-2.671M20.985 24.123V13.115c0-3.695 0-7.384-.017-11.08 0-.266 0-.398-.068-.463-.065-.06-.193-.06-.447-.06h-4.287c-.266 0-.401 0-.47.065-.071.067-.071.204-.071.483v8.4c0 .243 0 .364-.063.424-.061.06-.183.06-.428.06h-9.3c-.245 0-.367 0-.429-.06-.062-.059-.062-.178-.062-.415V2.406l.003-.136a8 8 0 0 0-.003-.433c-.008-.278-.041-.32-.32-.32H.397c-.354 0-.39.042-.397.394v22.276c0 .082 0 .171.009.254.007.122.075.205.211.205.1.008.194.008.296.008h4.286c.275 0 .413 0 .481-.067.07-.067.07-.2.07-.466v-8.334c0-.525.008-.525.524-.525h9.198c.283 0 .426 0 .496.069.07.068.07.206.07.48v8.368c0 .458.018.475.482.475h4.32c.27 0 .406 0 .474-.066.068-.065.068-.198.068-.465"/><path fill="#fff" fill-rule="evenodd" d="M42.073 24.105v-8.203c0-1.336 0-2.671.016-4.007v-4.36c0-.379-.034-.41-.415-.41h-3.888c-.347.008-.373.033-.381.378-.009.263-.013.394-.075.43-.061.034-.18-.026-.416-.145-1.877-.942-3.846-1.245-5.918-.877-2.164.386-3.974 1.41-5.411 3.057-1.412 1.623-2.131 3.524-2.223 5.655a8.5 8.5 0 0 0 .548 3.353c.914 2.434 2.572 4.187 4.964 5.253 1.198.524 2.5.787 3.814.77a9.35 9.35 0 0 0 4.125-.967c.218-.109.328-.164.386-.132.059.033.063.158.071.412.009.31.034.335.338.343h3.924c.265 0 .4 0 .47-.066.07-.067.07-.204.07-.484m-9.927-13.407c.237-.033.474-.058.72-.048 1.478.015 2.764.524 3.804 1.54a5 5 0 0 1 1.53 3.27c.118 1.557-.373 2.901-1.447 4.016a5.22 5.22 0 0 1-3.245 1.581c-1.26.14-2.444-.09-3.5-.77-1.752-1.122-2.604-2.738-2.479-4.794.152-2.467 2.113-4.468 4.617-4.795M57.443 16.894c-.49 0-.498.008-.38.475.524 2.048 2.309 3.631 4.413 3.853 1.894.195 3.442-.484 4.634-1.96.118-.147.237-.295.32-.45.119-.23.289-.263.516-.221q.463.086.93.16l.5.086c.626.106 1.251.212 1.886.327l.018.003.049.008a1 1 0 0 1 .093.022c.27.066.296.097.177.353a9 9 0 0 1-1.327 2.089c-1.421 1.656-3.205 2.737-5.36 3.155-2.96.566-5.665-.024-8.024-1.909-2.004-1.597-3.138-3.688-3.382-6.22a8.4 8.4 0 0 1 .973-4.885c1.377-2.565 3.525-4.197 6.39-4.811 3.095-.656 5.894.041 8.32 2.057 1.81 1.508 2.833 3.459 3.155 5.762.084.597.126 1.213.025 1.819-.043.238-.059.27-.304.287q-.099.006-.197.002l-.1-.003zm9.124-3.001.127-.008c.093-.007.143-.057.11-.154a5.05 5.05 0 0 0-1.387-1.878c-1.09-.942-2.367-1.392-3.796-1.245-1.928.197-3.324 1.205-4.194 2.918-.178.352-.178.368.237.368h8.733q.087 0 .17-.002" clip-rule="evenodd"/><path fill="#fff" d="M73.458 19.124v-1.476l.002-.001v-.366c.001-.861.003-1.723-.003-2.585-.025-3.999 2.766-7.818 6.892-8.973q.377-.12.768-.188c.22-.033.254-.017.297.205a288.953 288.953 0 0 1 .7 3.909c.06.343.052.36-.295.426-1.868.386-3.255 1.77-3.61 3.623a6.3 6.3 0 0 0-.093 1.13v9.279c0 .274 0 .41-.069.475-.068.065-.201.065-.463.065h-3.856c-.212-.016-.244-.049-.254-.254a2 2 0 0 1 0-.197v-.037a483 483 0 0 1-.016-5.035M50.003 24.147v-8.27c0-2.72 0-5.45-.008-8.18l.002-.113c.001-.073.004-.143-.002-.214-.017-.214-.05-.245-.255-.262h-4.057c-.283 0-.428 0-.5.07-.075.071-.075.217-.075.512v16.415c0 .1 0 .198.009.296.016.204.059.237.261.253h4.117c.252 0 .379 0 .443-.06.065-.063.065-.191.065-.447"/></svg>
